X: 05074
T: REEL RICHARD
C: Bob McQuillen 18 Aug 80
B: Bob's Note Book 5 #74
%R: reel
Z: 2021 John Chambers <jc:trillian.mit.edu>
M: C
L: 1/8
K: D
|:A2BA FGAB | A2BA FGAB | ABde fded | c2 e6 |\
| G2AG EFGA | G2AG EFGA | GABd e2f2 | d8 :|
|:a2fd BAdf | a2fd BAdf | a2fa bagf | g2 e6 |\
| g2ed cAef | gece A2ef | gfgb a2c2 | d8 :|
%%begintext align
%% Ray & Nancy
%% Richard have been good friends and fellow
%% teachers for over 20 years. They also like
%% the music we play occasionally up at Deacon
%% Brodie's, so here's a tune of their own!
%%endtext

%%sep 1 1 500

%%sep 1 1 500

